images/2457.svg

<?xml version="1.0" encoding="UTF-8"?>
<svg xmlns="http://www.w3.org/2000/svg" xmlns:xlink="http://www.w3.org/1999/xlink" width="300pt" height="300pt" viewBox="0 0 300 300" version="1.1">
<defs>
<g>
<symbol overflow="visible" id="glyph0-0">
<path style="stroke:none;" d="M 0.796875 2.828125 L 0.796875 -11.28125 L 8.796875 -11.28125 L 8.796875 2.828125 Z M 1.703125 1.9375 L 7.90625 1.9375 L 7.90625 -10.390625 L 1.703125 -10.390625 Z M 1.703125 1.9375 "/>
</symbol>
<symbol overflow="visible" id="glyph0-1">
<path style="stroke:none;" d="M 1.578125 -11.671875 L 3.703125 -11.671875 L 8.875 -1.90625 L 8.875 -11.671875 L 10.40625 -11.671875 L 10.40625 0 L 8.28125 0 L 3.109375 -9.765625 L 3.109375 0 L 1.578125 0 Z M 1.578125 -11.671875 "/>
</symbol>
<symbol overflow="visible" id="glyph0-2">
<path style="stroke:none;" d="M 1.578125 -11.671875 L 3.15625 -11.671875 L 3.15625 -6.890625 L 8.890625 -6.890625 L 8.890625 -11.671875 L 10.46875 -11.671875 L 10.46875 0 L 8.890625 0 L 8.890625 -5.5625 L 3.15625 -5.5625 L 3.15625 0 L 1.578125 0 Z M 1.578125 -11.671875 "/>
</symbol>
</g>
</defs>
<g id="surface43033">
<rect x="0" y="0" width="300" height="300" style="fill:rgb(100%,100%,100%);fill-opacity:1;stroke:none;"/>
<path style="fill:none;stroke-width:1.2;stroke-linecap:butt;stroke-linejoin:miter;stroke:rgb(0%,0%,0%);stroke-opacity:1;stroke-miterlimit:10;" d="M 31.660156 145.496094 L 38.789062 183.078125 "/>
<path style="fill:none;stroke-width:1.2;stroke-linecap:butt;stroke-linejoin:miter;stroke:rgb(0%,0%,100%);stroke-opacity:1;stroke-miterlimit:10;" d="M 65.203125 127.105469 L 48.433594 136.300781 "/>
<path style="fill:none;stroke-width:1.2;stroke-linecap:butt;stroke-linejoin:miter;stroke:rgb(0%,0%,0%);stroke-opacity:1;stroke-miterlimit:10;" d="M 48.433594 136.300781 L 31.660156 145.496094 "/>
<path style="fill:none;stroke-width:1.2;stroke-linecap:butt;stroke-linejoin:miter;stroke:rgb(0%,0%,0%);stroke-opacity:1;stroke-miterlimit:10;" d="M 38.789062 183.078125 L 57.757812 185.496094 "/>
<path style="fill:none;stroke-width:1.2;stroke-linecap:butt;stroke-linejoin:miter;stroke:rgb(0%,0%,100%);stroke-opacity:1;stroke-miterlimit:10;" d="M 57.757812 185.496094 L 76.730469 187.914062 "/>
<path style="fill:none;stroke-width:1.2;stroke-linecap:butt;stroke-linejoin:miter;stroke:rgb(0%,0%,100%);stroke-opacity:1;stroke-miterlimit:10;" d="M 76.730469 187.914062 L 84.894531 170.617188 "/>
<path style="fill:none;stroke-width:1.2;stroke-linecap:butt;stroke-linejoin:miter;stroke:rgb(0%,0%,0%);stroke-opacity:1;stroke-miterlimit:10;" d="M 84.894531 170.617188 L 93.054688 153.320312 "/>
<path style="fill:none;stroke-width:1.2;stroke-linecap:butt;stroke-linejoin:miter;stroke:rgb(0%,0%,100%);stroke-opacity:1;stroke-miterlimit:10;" d="M 70.222656 180.613281 L 76.753906 166.777344 "/>
<path style="fill:none;stroke-width:1.2;stroke-linecap:butt;stroke-linejoin:miter;stroke:rgb(0%,0%,0%);stroke-opacity:1;stroke-miterlimit:10;" d="M 76.753906 166.777344 L 83.285156 152.941406 "/>
<path style=" stroke:none;fill-rule:nonzero;fill:rgb(100%,100%,100%);fill-opacity:1;" d="M 70.730469 178.414062 L 82.730469 178.414062 L 82.730469 197.414062 L 70.730469 197.414062 Z M 70.730469 178.414062 "/>
<g style="fill:rgb(0%,0%,100%);fill-opacity:1;">
  <use xlink:href="#glyph0-1" x="70.730469" y="193.265625"/>
</g>
<path style="fill:none;stroke-width:1.2;stroke-linecap:butt;stroke-linejoin:miter;stroke:rgb(0%,0%,0%);stroke-opacity:1;stroke-miterlimit:10;" d="M 93.054688 153.320312 L 79.128906 140.214844 "/>
<path style="fill:none;stroke-width:1.2;stroke-linecap:butt;stroke-linejoin:miter;stroke:rgb(0%,0%,100%);stroke-opacity:1;stroke-miterlimit:10;" d="M 79.128906 140.214844 L 65.203125 127.105469 "/>
<path style="fill:none;stroke-width:1.2;stroke-linecap:butt;stroke-linejoin:miter;stroke:rgb(0%,0%,0%);stroke-opacity:1;stroke-miterlimit:10;" d="M 93.054688 153.320312 L 130.636719 146.195312 "/>
<path style=" stroke:none;fill-rule:nonzero;fill:rgb(100%,100%,100%);fill-opacity:1;" d="M 53.203125 117.605469 L 77.203125 117.605469 L 77.203125 136.605469 L 53.203125 136.605469 Z M 53.203125 117.605469 "/>
<g style="fill:rgb(0%,0%,100%);fill-opacity:1;">
  <use xlink:href="#glyph0-1" x="53.203125" y="132.457031"/>
  <use xlink:href="#glyph0-2" x="65.171875" y="132.457031"/>
</g>
<path style="fill:none;stroke-width:1.2;stroke-linecap:butt;stroke-linejoin:miter;stroke:rgb(0%,0%,0%);stroke-opacity:1;stroke-miterlimit:10;" d="M 130.636719 146.195312 L 143.117188 160.6875 "/>
<path style="fill:none;stroke-width:1.2;stroke-linecap:butt;stroke-linejoin:miter;stroke:rgb(0%,0%,100%);stroke-opacity:1;stroke-miterlimit:10;" d="M 143.117188 160.6875 L 155.597656 175.179688 "/>
<path style="fill:none;stroke-width:1.2;stroke-linecap:butt;stroke-linejoin:miter;stroke:rgb(0%,0%,0%);stroke-opacity:1;stroke-miterlimit:10;" d="M 139.953125 143.222656 L 149.9375 154.816406 "/>
<path style="fill:none;stroke-width:1.2;stroke-linecap:butt;stroke-linejoin:miter;stroke:rgb(0%,0%,100%);stroke-opacity:1;stroke-miterlimit:10;" d="M 149.9375 154.816406 L 159.921875 166.40625 "/>
<path style="fill:none;stroke-width:1.2;stroke-linecap:butt;stroke-linejoin:miter;stroke:rgb(0%,0%,0%);stroke-opacity:1;stroke-miterlimit:10;" d="M 143.253906 110.089844 L 130.636719 146.195312 "/>
<path style="fill:none;stroke-width:1.2;stroke-linecap:butt;stroke-linejoin:miter;stroke:rgb(0%,0%,100%);stroke-opacity:1;stroke-miterlimit:10;" d="M 155.597656 175.179688 L 174.386719 171.617188 "/>
<path style="fill:none;stroke-width:1.2;stroke-linecap:butt;stroke-linejoin:miter;stroke:rgb(0%,0%,0%);stroke-opacity:1;stroke-miterlimit:10;" d="M 174.386719 171.617188 L 193.175781 168.054688 "/>
<path style=" stroke:none;fill-rule:nonzero;fill:rgb(100%,100%,100%);fill-opacity:1;" d="M 149.597656 165.679688 L 161.597656 165.679688 L 161.597656 184.679688 L 149.597656 184.679688 Z M 149.597656 165.679688 "/>
<g style="fill:rgb(0%,0%,100%);fill-opacity:1;">
  <use xlink:href="#glyph0-1" x="149.597656" y="180.53125"/>
</g>
<path style="fill:none;stroke-width:1.2;stroke-linecap:butt;stroke-linejoin:miter;stroke:rgb(0%,0%,0%);stroke-opacity:1;stroke-miterlimit:10;" d="M 193.175781 168.054688 L 218.136719 197.035156 "/>
<path style="fill:none;stroke-width:1.2;stroke-linecap:butt;stroke-linejoin:miter;stroke:rgb(0%,0%,0%);stroke-opacity:1;stroke-miterlimit:10;" d="M 202.492188 165.078125 L 222.460938 188.265625 "/>
<path style="fill:none;stroke-width:1.2;stroke-linecap:butt;stroke-linejoin:miter;stroke:rgb(0%,0%,0%);stroke-opacity:1;stroke-miterlimit:10;" d="M 205.796875 131.945312 L 193.175781 168.054688 "/>
<path style="fill:none;stroke-width:1.2;stroke-linecap:butt;stroke-linejoin:miter;stroke:rgb(0%,0%,0%);stroke-opacity:1;stroke-miterlimit:10;" d="M 218.136719 197.035156 L 255.71875 189.910156 "/>
<path style="fill:none;stroke-width:1.2;stroke-linecap:butt;stroke-linejoin:miter;stroke:rgb(0%,0%,0%);stroke-opacity:1;stroke-miterlimit:10;" d="M 255.71875 189.910156 L 268.339844 153.804688 "/>
<path style="fill:none;stroke-width:1.2;stroke-linecap:butt;stroke-linejoin:miter;stroke:rgb(0%,0%,0%);stroke-opacity:1;stroke-miterlimit:10;" d="M 248.484375 183.332031 L 258.578125 154.445312 "/>
<path style="fill:none;stroke-width:1.2;stroke-linecap:butt;stroke-linejoin:miter;stroke:rgb(0%,0%,0%);stroke-opacity:1;stroke-miterlimit:10;" d="M 268.339844 153.804688 L 243.375 124.820312 "/>
<path style="fill:none;stroke-width:1.2;stroke-linecap:butt;stroke-linejoin:miter;stroke:rgb(0%,0%,0%);stroke-opacity:1;stroke-miterlimit:10;" d="M 243.375 124.820312 L 205.796875 131.945312 "/>
<path style="fill:none;stroke-width:1.2;stroke-linecap:butt;stroke-linejoin:miter;stroke:rgb(0%,0%,0%);stroke-opacity:1;stroke-miterlimit:10;" d="M 241.296875 134.375 L 211.230469 140.074219 "/>
<path style="fill:none;stroke-width:1.2;stroke-linecap:butt;stroke-linejoin:miter;stroke:rgb(0%,0%,0%);stroke-opacity:1;stroke-miterlimit:10;" d="M 205.796875 131.945312 L 180.835938 102.964844 "/>
<path style="fill:none;stroke-width:1.2;stroke-linecap:butt;stroke-linejoin:miter;stroke:rgb(0%,0%,0%);stroke-opacity:1;stroke-miterlimit:10;" d="M 180.835938 102.964844 L 143.253906 110.089844 "/>
<path style="fill:none;stroke-width:1.2;stroke-linecap:butt;stroke-linejoin:miter;stroke:rgb(0%,0%,0%);stroke-opacity:1;stroke-miterlimit:10;" d="M 178.753906 112.519531 L 148.691406 118.21875 "/>
</g>
</svg>

<svg xmlns="http://www.w3.org/2000/svg" xmlns:xlink="http://www.w3.org/1999/xlink" width="300pt" height="300pt" viewBox="0 0 300 300"><defs><symbol overflow="visible"><path d="M.797 2.828v-14.11h8V2.83zm.906-.89h6.203v-12.33H1.703zm0 0"/></symbol><symbol overflow="visible" id="a"><path d="M1.578-11.672h2.125l5.172 9.766v-9.766h1.53V0H8.282L3.11-9.766V0H1.577zm0 0"/></symbol><symbol overflow="visible" id="b"><path d="M1.578-11.672h1.578v4.78H8.89v-4.78h1.58V0H8.89v-5.563H3.157V0H1.578zm0 0"/></symbol></defs><g><path fill="#fff" d="M0 0h300v300H0z"/><path d="M31.66 145.496l7.13 37.582" stroke-width="1.2" stroke="#000" stroke-miterlimit="10" fill="none"/><path d="M65.203 127.105l-16.77 9.196" stroke-width="1.2" stroke="#00f" stroke-miterlimit="10" fill="none"/><path d="M48.434 136.3l-16.774 9.196M38.79 183.078l18.968 2.418" stroke-width="1.2" stroke="#000" stroke-miterlimit="10" fill="none"/><path d="M57.758 185.496l18.972 2.418M76.73 187.914l8.165-17.297" stroke-width="1.2" stroke="#00f" stroke-miterlimit="10" fill="none"/><path d="M84.895 170.617l8.16-17.297" stroke-width="1.2" stroke="#000" stroke-miterlimit="10" fill="none"/><path d="M70.223 180.613l6.53-13.836" stroke-width="1.2" stroke="#00f" stroke-miterlimit="10" fill="none"/><path d="M76.754 166.777l6.53-13.836" stroke-width="1.2" stroke="#000" stroke-miterlimit="10" fill="none"/><path d="M70.73 178.414h12v19h-12zm0 0" fill="#fff"/><use xlink:href="#a" x="70.73" y="193.266" fill="#00f"/><path d="M93.055 153.32L79.13 140.215" stroke-width="1.2" stroke="#000" stroke-miterlimit="10" fill="none"/><path d="M79.13 140.215l-13.927-13.11" stroke-width="1.2" stroke="#00f" stroke-miterlimit="10" fill="none"/><path d="M93.055 153.32l37.582-7.125" stroke-width="1.2" stroke="#000" stroke-miterlimit="10" fill="none"/><path d="M53.203 117.605h24v19h-24zm0 0" fill="#fff"/><g fill="#00f"><use xlink:href="#a" x="53.203" y="132.457"/><use xlink:href="#b" x="65.172" y="132.457"/></g><path d="M130.637 146.195l12.48 14.493" stroke-width="1.2" stroke="#000" stroke-miterlimit="10" fill="none"/><path d="M143.117 160.688l12.48 14.492" stroke-width="1.2" stroke="#00f" stroke-miterlimit="10" fill="none"/><path d="M139.953 143.223l9.984 11.593" stroke-width="1.2" stroke="#000" stroke-miterlimit="10" fill="none"/><path d="M149.938 154.816l9.984 11.59" stroke-width="1.2" stroke="#00f" stroke-miterlimit="10" fill="none"/><path d="M143.254 110.09l-12.617 36.105" stroke-width="1.2" stroke="#000" stroke-miterlimit="10" fill="none"/><path d="M155.598 175.18l18.79-3.563" stroke-width="1.2" stroke="#00f" stroke-miterlimit="10" fill="none"/><path d="M174.387 171.617l18.79-3.562" stroke-width="1.2" stroke="#000" stroke-miterlimit="10" fill="none"/><path d="M149.598 165.68h12v19h-12zm0 0" fill="#fff"/><use xlink:href="#a" x="149.598" y="180.531" fill="#00f"/><path d="M193.176 168.055l24.96 28.98M202.492 165.078l19.97 23.188M205.797 131.945l-12.62 36.11M218.137 197.035l37.582-7.125M255.72 189.91l12.62-36.105M248.484 183.332l10.094-28.887M268.34 153.805l-24.965-28.985M243.375 124.82l-37.578 7.125M241.297 134.375l-30.067 5.7M205.797 131.945l-24.96-28.98M180.836 102.965l-37.582 7.125M178.754 112.52l-30.063 5.7" stroke-width="1.2" stroke="#000" stroke-miterlimit="10" fill="none"/></g></svg>
